X:1
T:(unknown title)
M:4/4
L:1/4
K:F
 A| G3/2 F/2 D C| F3/2- G/2 Ad/2-c/2| A3/2 F/2 G A| F3|C/2-D/2| F FF/2-A/2 A|\
 c cA/2-B/2 c| d dd/2-c/2A/2-G/2| A3|C/2-D/2| F FF/2-A/2 A| c cA/2-c/2 c|\
 d dd/2-c/2A/2-G/2| A3| A/2A/2| G3/2 F/2 D C| F3/2 G/2 Ad/2-c/2| A3/2 F/2 G A|\
 F3||

